X: 1244
T: Staffanslåt från Leksand
R: Visa
Z: Håkan Lidén, 2009-03-04
O: Leksand, Dalarna
S: känd genom Folk och rackare
D: Med blicken västerut
M: C|
L: 1/8
K: Am
E2 |: A>^G A<B c>B c<d | c>B A<^G A2 e2 |1 d>c B<A c2 c<B :|2 d>c B<A c2-c<c ||
e>d e<f g>f e<d | c2 B<A B2 A<^G | A>^G A<B c>B c<d | c2 A4 |]
(:musicend:)

(:music:)
